public/fonts/icons/files-creative-commons.svg

<?xml version="1.0" encoding="UTF-8" standalone="no"?>
<svg width="60px" height="60px" viewBox="0 0 60 60" version="1.1" xmlns="http://www.w3.org/2000/svg" xmlns:xlink="http://www.w3.org/1999/xlink" xmlns:sketch="http://www.bohemiancoding.com/sketch/ns">
    <!-- Generator: Sketch 3.1.1 (8761) - http://www.bohemiancoding.com/sketch -->
    <title>Artboard</title>
    <desc>Created with Sketch.</desc>
    <defs></defs>
    <g id="Page-1" stroke="none" stroke-width="1" fill="none" fill-rule="evenodd" sketch:type="MSPage">
        <g id="Artboard" sketch:type="MSArtboardGroup">
            <g id="icon-creative-commons" sketch:type="MSLayerGroup">
                <g id="Icons" sketch:type="MSShapeGroup">
                    <g id="Artboard-3">
                        <g id="icon-creative-commons">
                            <g id="bg-2">
                                <circle id="Oval-5" fill="#000000" cx="30" cy="30" r="30"></circle>
                                <circle id="Oval-6" fill="#FFFFFF" cx="30" cy="30" r="24"></circle>
                            </g>
                            <path d="M29.887,24.6270019 L25.6,26.8560019 C25.142,25.9050019 24.581,25.2370019 23.915,24.8560019 C23.248,24.4760019 22.629,24.2850019 22.057,24.2850019 C19.201,24.2850019 17.771,26.1700019 17.771,29.9420019 C17.771,31.6560019 18.133,33.0260019 18.856,34.0550019 C19.58,35.0840019 20.647,35.5990019 22.057,35.5990019 C23.924,35.5990019 25.238,34.6840019 26.001,32.8560019 L29.943,34.8560019 C29.105,36.4190019 27.943,37.6470019 26.457,38.5420019 C24.973,39.4380019 23.334,39.8850019 21.543,39.8850019 C18.686,39.8850019 16.38,39.0100019 14.628,37.2560019 C12.876,35.5040019 12,33.0660019 12,29.9430019 C12,26.8950019 12.886,24.4770019 14.657,22.6860019 C16.428,20.8960019 18.666,20.0000019 21.372,20.0000019 C25.335,19.9980019 28.172,21.5410019 29.887,24.6270019 L29.887,24.6270019 L29.887,24.6270019 Z M48.344,24.6270019 L44.115,26.8560019 C43.658,25.9050019 43.095,25.2370019 42.429,24.8560019 C41.761,24.4760019 41.122,24.2850019 40.515,24.2850019 C37.658,24.2850019 36.228,26.1700019 36.228,29.9420019 C36.228,31.6560019 36.591,33.0260019 37.314,34.0550019 C38.037,35.0840019 39.103,35.5990019 40.515,35.5990019 C42.38,35.5990019 43.695,34.6840019 44.456,32.8560019 L48.456,34.8560019 C47.581,36.4190019 46.399,37.6470019 44.915,38.5420019 C43.429,39.4380019 41.81,39.8850019 40.058,39.8850019 C37.162,39.8850019 34.849,39.0100019 33.117,37.2560019 C31.381,35.5040019 30.515,33.0660019 30.515,29.9430019 C30.515,26.8950019 31.4,24.4770019 33.173,22.6860019 C34.943,20.8960019 37.181,20.0000019 39.886,20.0000019 C43.848,19.9980019 46.669,21.5410019 48.344,24.6270019 L48.344,24.6270019 L48.344,24.6270019 Z" id="Shape-2" fill="#000000"></path>
                        </g>
                    </g>
                </g>
            </g>
        </g>
    </g>
</svg>

<svg width="60" height="60" viewBox="0 0 60 60" xmlns="http://www.w3.org/2000/svg"><title>Files Creative Commons</title><g fill="none" fill-rule="evenodd"><circle fill="#000" cx="30" cy="30" r="30"/><circle fill="#FFF" cx="30" cy="30" r="24"/><path d="M29.887 24.627l-4.287 2.23c-.458-.952-1.02-1.62-1.685-2-.667-.38-1.286-.572-1.858-.572-2.856 0-4.286 1.885-4.286 5.657 0 1.714.363 3.084 1.086 4.113.724 1.03 1.79 1.544 3.2 1.544 1.868 0 3.182-.916 3.945-2.744l3.943 2c-.838 1.563-2 2.79-3.486 3.686-1.484.896-3.123 1.343-4.914 1.343-2.857 0-5.163-.875-6.915-2.63-1.752-1.75-2.628-4.19-2.628-7.312 0-3.048.886-5.466 2.657-7.257 1.77-1.79 4.01-2.686 6.715-2.686 3.963-.002 6.8 1.54 8.515 4.627zm18.457 0l-4.23 2.23c-.456-.952-1.02-1.62-1.685-2-.67-.38-1.308-.572-1.915-.572-2.857 0-4.287 1.885-4.287 5.657 0 1.714.363 3.084 1.086 4.113.723 1.03 1.79 1.544 3.2 1.544 1.866 0 3.18-.916 3.942-2.744l4 2c-.875 1.563-2.057 2.79-3.54 3.686a9.233 9.233 0 0 1-4.858 1.343c-2.896 0-5.21-.875-6.94-2.63-1.737-1.75-2.603-4.19-2.603-7.312 0-3.048.885-5.466 2.658-7.257C34.943 20.896 37.18 20 39.886 20c3.962-.002 6.783 1.54 8.458 4.627z" fill="#000"/></g></svg>
